X: 27214
T: Miss Ramsey's Highland
R: strathspey
M: 4/4
K: Dmajor
D2DB A<FF2|AFdB AFE<F|D2DB A<FFA|B/c/d AF GFE<F|
D2DB A<FF2|AFdB AFE<F|D2DB A<FFA|B/c/d AF E2Eg|
f<ddf e<cce|dedB ABde|f<ddf e<ccA|B/c/d AF E2Eg|
f<ddf e<cce|dedB ABde|f/e/d e/d/c d/c/B A2|B/c/d AF GFE<F|

